X: 2357
M: C
L: 1/8
K: D
f2fe (dc)dB |AFDF AFBA |\
(cd) |\
e^dec A2(de) | fefd A2f2 |
gfeg fedf | edcB A2(cd) |\
e^dec A2(de) | fefd A2a2 |\
^gfef edcB |[1 A2A2A2 :|[2 A2(^GA) Bcd"_D.S."e |]


